sites/WD/images/netbook.svg

<svg width="357" height="234" fill="none" xmlns="http://www.w3.org/2000/svg"><g clip-path="url(#a)"><path d="M337.3 225.4H24.1c-4.2 0-7.6-3.4-7.6-7.6V7.6c0-4.2 3.4-7.6 7.6-7.6h313.2c4.2 0 7.6 3.4 7.6 7.6v210.1c.1 4.3-3.4 7.7-7.6 7.7Z" fill="#00D5E4"/><path d="M326.2 217.8h-291c-4.2 0-7.6-3.4-7.6-7.6V15.3c0-4.2 3.4-7.6 7.6-7.6h291c4.2 0 7.6 3.4 7.6 7.6v194.9c.1 4.1-3.4 7.6-7.6 7.6Z" fill="#065090"/><path d="M115.6 28.9H75.4v4.5h40.2v-4.5ZM101 38.9H75.4v4.5H101v-4.5ZM218.5 38.9H115.4v4.5h103.1v-4.5Z" fill="#FCFDFD"/><path d="M282.5 38.9h-54v4.5h54v-4.5Z" fill="#FF6452"/><path d="M150.5 48.9H85.4v4.5h65.1v-4.5Z" fill="#00D050"/><path d="M267.5 48.9h-97v4.5h97v-4.5Z" fill="#FCFDFD"/><path d="M167 58.9H75.4v4.5H167v-4.5Z" fill="#FF6452"/><path d="M240.5 58.9h-65.1v4.5h65.1v-4.5Z" fill="#00D5E4"/><path d="M150.5 68.9H85.4v4.5h65.1v-4.5ZM170.5 78.9H75.4v4.5h95.1v-4.5ZM140.5 88.9H75.4v4.5h65.1v-4.5Z" fill="#FCFDFD"/><path d="M204 98.9H95.4v4.5H204v-4.5Z" fill="#FF6452"/><path d="M250.5 98.9h-35.1v4.5h35.1v-4.5ZM300.5 98.9h-35.1v4.5h35.1v-4.5ZM149.7 108.9h-44.3v4.5h44.3v-4.5Z" fill="#FCFDFD"/><path d="M164.5 118.9h-59.1v4.5h59.1v-4.5Z" fill="#FF6452"/><path d="M250.5 118.9h-65.1v4.5h65.1v-4.5Z" fill="#FCFDFD"/><path d="M292.5 118.9h-27.1v4.5h27.1v-4.5Z" fill="#FF6452"/><path d="M115.4 128.9h-40v4.5h40v-4.5ZM140.5 138.9H75.4v4.5h65.1v-4.5ZM223.5 148.9H105.4v4.5h118.1v-4.5Z" fill="#FCFDFD"/><path d="M308.5 148.9h-73.1v4.5h73.1v-4.5Z" fill="#00D5E4"/><path d="M145.5 158.9h-40.1v4.5h40.1v-4.5Z" fill="#FCFDFD"/><path d="M195.5 158.9h-40.1v4.5h40.1v-4.5Z" fill="#00D050"/><path d="M245.5 158.9h-40.1v4.5h40.1v-4.5ZM140.5 168.9H75.4v4.5h65.1v-4.5Z" fill="#FCFDFD"/><path d="M160.5 178.9H95.4v4.5h65.1v-4.5ZM238 178.9h-65.1v4.5H238v-4.5Z" fill="#00D050"/><path d="M208 198.9h-36.5v4.5H208v-4.5ZM192 188.9H95.4v4.5H192v-4.5Z" fill="#FCFDFD"/><path d="M50.3 28.9h-4.5v4.5h4.5v-4.5ZM50.3 38.9h-4.5v4.5h4.5v-4.5ZM50.3 48.9h-4.5v4.5h4.5v-4.5ZM50.3 58.9h-4.5v4.5h4.5v-4.5ZM50.3 68.9h-4.5v4.5h4.5v-4.5ZM50.3 78.9h-4.5v4.5h4.5v-4.5ZM50.3 88.9h-4.5v4.5h4.5v-4.5ZM50.3 98.9h-4.5v4.5h4.5v-4.5ZM50.3 108.9h-4.5v4.5h4.5v-4.5ZM50.3 118.9h-4.5v4.5h4.5v-4.5ZM50.3 128.9h-4.5v4.5h4.5v-4.5ZM50.3 138.9h-4.5v4.5h4.5v-4.5ZM50.3 148.9h-4.5v4.5h4.5v-4.5ZM50.3 158.9h-4.5v4.5h4.5v-4.5ZM50.3 168.9h-4.5v4.5h4.5v-4.5ZM50.3 178.9h-4.5v4.5h4.5v-4.5ZM50.3 188.9h-4.5v4.5h4.5v-4.5ZM50.3 198.9h-4.5v4.5h4.5v-4.5Z" fill="#5E94C1"/><path d="M143.7 198.9H95.4v4.5h48.3v-4.5ZM284.7 203.3l-19-8.1v-3.3l19-8.1v3.5l-15.1 6.2 15.1 6.2v3.6ZM298.1 179l-8.3 28.7H287l8.3-28.7h2.8ZM319.3 195.2l-19 8.1v-3.5l15.1-6.2-15.1-6.2v-3.5l19 8.1v3.2Z" fill="#FCFDFD"/><path d="M337 233.7H20c-11 0-20-9-20-20h357c0 11.1-9 20-20 20Z" fill="#00BBD3"/><g opacity=".1"><path opacity=".1" d="M129.4 217.8 204 7.6h-28.3l-74.6 210.2h28.3ZM35.3 217.8h13.3L123.2 7.6H35.3c-4.2 0-7.6 3.4-7.6 7.6v194.9c-.1 4.2 3.4 7.7 7.6 7.7ZM287.6 217.8h38.7c4.2 0 7.6-3.4 7.6-7.6V87.4l-46.3 130.4Z" fill="#fff"/></g><path opacity=".1" d="M184.3 217.8h51.9L310.8 7.6h-51.9l-74.6 210.2Z" fill="#fff"/><path d="M354.3 223.7c1.7-2.9 2.7-6.4 2.7-10H0c0 3.6 1 7.1 2.7 10h351.6Z" fill="#15D7E2"/></g><defs><clipPath id="a"><path fill="#fff" d="M0 0h357v233.7H0z"/></clipPath></defs></svg>

<svg width="357" height="234" viewBox="0 0 357 234" fill="none" xmlns="http://www.w3.org/2000/svg">
<g clip-path="url(#clip0_1_191)">
<path d="M337.3 225.4H24.1C19.9 225.4 16.5 222 16.5 217.8V7.6C16.5 3.4 19.9 0 24.1 0H337.3C341.5 0 344.9 3.4 344.9 7.6V217.7C345 222 341.5 225.4 337.3 225.4Z" fill="#00D5E4"/>
<path d="M326.2 217.8H35.2C31 217.8 27.6 214.4 27.6 210.2V15.3C27.6 11.1 31 7.70001 35.2 7.70001H326.2C330.4 7.70001 333.8 11.1 333.8 15.3V210.2C333.9 214.3 330.4 217.8 326.2 217.8Z" fill="#065090"/>
<path d="M115.6 28.9H75.4V33.4H115.6V28.9Z" fill="#FCFDFD"/>
<path d="M101 38.9H75.4V43.4H101V38.9Z" fill="#FCFDFD"/>
<path d="M218.5 38.9H115.4V43.4H218.5V38.9Z" fill="#FCFDFD"/>
<path d="M282.5 38.9H228.5V43.4H282.5V38.9Z" fill="#FF6452"/>
<path d="M150.5 48.9H85.4V53.4H150.5V48.9Z" fill="#00D050"/>
<path d="M267.5 48.9H170.5V53.4H267.5V48.9Z" fill="#FCFDFD"/>
<path d="M167 58.9H75.4V63.4H167V58.9Z" fill="#FF6452"/>
<path d="M240.5 58.9H175.4V63.4H240.5V58.9Z" fill="#00D5E4"/>
<path d="M150.5 68.9H85.4V73.4H150.5V68.9Z" fill="#FCFDFD"/>
<path d="M170.5 78.9H75.4V83.4H170.5V78.9Z" fill="#FCFDFD"/>
<path d="M140.5 88.9H75.4V93.4H140.5V88.9Z" fill="#FCFDFD"/>
<path d="M204 98.9H95.4V103.4H204V98.9Z" fill="#FF6452"/>
<path d="M250.5 98.9H215.4V103.4H250.5V98.9Z" fill="#FCFDFD"/>
<path d="M300.5 98.9H265.4V103.4H300.5V98.9Z" fill="#FCFDFD"/>
<path d="M149.7 108.9H105.4V113.4H149.7V108.9Z" fill="#FCFDFD"/>
<path d="M164.5 118.9H105.4V123.4H164.5V118.9Z" fill="#FF6452"/>
<path d="M250.5 118.9H185.4V123.4H250.5V118.9Z" fill="#FCFDFD"/>
<path d="M292.5 118.9H265.4V123.4H292.5V118.9Z" fill="#FF6452"/>
<path d="M115.4 128.9H75.4V133.4H115.4V128.9Z" fill="#FCFDFD"/>
<path d="M140.5 138.9H75.4V143.4H140.5V138.9Z" fill="#FCFDFD"/>
<path d="M223.5 148.9H105.4V153.4H223.5V148.9Z" fill="#FCFDFD"/>
<path d="M308.5 148.9H235.4V153.4H308.5V148.9Z" fill="#00D5E4"/>
<path d="M145.5 158.9H105.4V163.4H145.5V158.9Z" fill="#FCFDFD"/>
<path d="M195.5 158.9H155.4V163.4H195.5V158.9Z" fill="#00D050"/>
<path d="M245.5 158.9H205.4V163.4H245.5V158.9Z" fill="#FCFDFD"/>
<path d="M140.5 168.9H75.4V173.4H140.5V168.9Z" fill="#FCFDFD"/>
<path d="M160.5 178.9H95.4V183.4H160.5V178.9Z" fill="#00D050"/>
<path d="M238 178.9H172.9V183.4H238V178.9Z" fill="#00D050"/>
<path d="M208 198.9H171.5V203.4H208V198.9Z" fill="#FCFDFD"/>
<path d="M192 188.9H95.4V193.4H192V188.9Z" fill="#FCFDFD"/>
<path d="M50.3 28.9H45.8V33.4H50.3V28.9Z" fill="#5E94C1"/>
<path d="M50.3 38.9H45.8V43.4H50.3V38.9Z" fill="#5E94C1"/>
<path d="M50.3 48.9H45.8V53.4H50.3V48.9Z" fill="#5E94C1"/>
<path d="M50.3 58.9H45.8V63.4H50.3V58.9Z" fill="#5E94C1"/>
<path d="M50.3 68.9H45.8V73.4H50.3V68.9Z" fill="#5E94C1"/>
<path d="M50.3 78.9H45.8V83.4H50.3V78.9Z" fill="#5E94C1"/>
<path d="M50.3 88.9H45.8V93.4H50.3V88.9Z" fill="#5E94C1"/>
<path d="M50.3 98.9H45.8V103.4H50.3V98.9Z" fill="#5E94C1"/>
<path d="M50.3 108.9H45.8V113.4H50.3V108.9Z" fill="#5E94C1"/>
<path d="M50.3 118.9H45.8V123.4H50.3V118.9Z" fill="#5E94C1"/>
<path d="M50.3 128.9H45.8V133.4H50.3V128.9Z" fill="#5E94C1"/>
<path d="M50.3 138.9H45.8V143.4H50.3V138.9Z" fill="#5E94C1"/>
<path d="M50.3 148.9H45.8V153.4H50.3V148.9Z" fill="#5E94C1"/>
<path d="M50.3 158.9H45.8V163.4H50.3V158.9Z" fill="#5E94C1"/>
<path d="M50.3 168.9H45.8V173.4H50.3V168.9Z" fill="#5E94C1"/>
<path d="M50.3 178.9H45.8V183.4H50.3V178.9Z" fill="#5E94C1"/>
<path d="M50.3 188.9H45.8V193.4H50.3V188.9Z" fill="#5E94C1"/>
<path d="M50.3 198.9H45.8V203.4H50.3V198.9Z" fill="#5E94C1"/>
<path d="M143.7 198.9H95.4V203.4H143.7V198.9Z" fill="#FCFDFD"/>
<path d="M284.7 203.3L265.7 195.2V191.9L284.7 183.8V187.3L269.6 193.5L284.7 199.7V203.3Z" fill="#FCFDFD"/>
<path d="M298.1 179L289.8 207.7H287L295.3 179H298.1Z" fill="#FCFDFD"/>
<path d="M319.3 195.2L300.3 203.3V199.8L315.4 193.6L300.3 187.4V183.9L319.3 192V195.2Z" fill="#FCFDFD"/>
<path d="M337 233.7H20C9 233.7 0 224.7 0 213.7H357C357 224.8 348 233.7 337 233.7Z" fill="#00BBD3"/>
<g opacity="0.1">
<g opacity="0.1">
<path opacity="0.1" d="M129.4 217.8L204 7.59998H175.7L101.1 217.8H129.4Z" fill="white"/>
</g>
<g opacity="0.1">
<path opacity="0.1" d="M35.3 217.8H48.6L123.2 7.59998H35.3C31.1 7.59998 27.7 11 27.7 15.2V210.1C27.6 214.3 31.1 217.8 35.3 217.8Z" fill="white"/>
</g>
<g opacity="0.1">
<path opacity="0.1" d="M287.6 217.8H326.3C330.5 217.8 333.9 214.4 333.9 210.2V87.4L287.6 217.8Z" fill="white"/>
</g>
</g>
<g opacity="0.1">
<g opacity="0.1">
<path opacity="0.1" d="M184.3 217.8H236.2L310.8 7.59998H258.9L184.3 217.8Z" fill="white"/>
</g>
</g>
<path d="M354.3 223.7C356 220.8 357 217.3 357 213.7H0C0 217.3 1 220.8 2.7 223.7H354.3Z" fill="#15D7E2"/>
</g>
<defs>
<clipPath id="clip0_1_191">
<rect width="357" height="233.7" fill="white"/>
</clipPath>
</defs>
</svg>
